static/app-icons/light-theme/034.svg

<svg xmlns="http://www.w3.org/2000/svg" xmlns:xlink="http://www.w3.org/1999/xlink" viewBox="0 0 32 32"><defs><linearGradient id="a" x1="13" y1="7.5" x2="26" y2="7.5" gradientUnits="userSpaceOnUse"><stop offset=".4"/><stop offset="1" stop-opacity="0"/></linearGradient><linearGradient id="b" x1="-3754.5" y1="3561" x2="-3741.5" y2="3561" gradientTransform="translate(3772.5 -3541.5)" xlink:href="#a"/><linearGradient id="c" x1="-201" y1="7339.5" x2="-188" y2="7339.5" gradientTransform="translate(207 -7315)" xlink:href="#a"/><linearGradient id="d" x1="3577.5" y1="3795" x2="3590.5" y2="3795" gradientTransform="translate(-3576.5 -3782.5)" xlink:href="#a"/><linearGradient id="f" y1="32" x2="32" gradientUnits="userSpaceOnUse"><stop offset=".1" stop-color="#ee5396"/><stop offset=".9" stop-color="#8a3ffc"/></linearGradient><mask id="e" x="0" y="0" width="32" height="32" maskUnits="userSpaceOnUse"><path d="M0 0h32v32H0z"/><path d="M16 3a13 13 0 1013 13A13.015 13.015 0 0016 3zm0 24a11 11 0 1111-11 11.013 11.013 0 01-11 11z" fill="#fff"/><path fill="url(#a)" d="M13 2h13v11H13z"/><path transform="rotate(90 24.5 19.5)" fill="url(#b)" d="M18 14h13v11H18z"/><path transform="rotate(180 12.5 24.5)" fill="url(#c)" d="M6 19h13v11H6z"/><path transform="rotate(-90 7.5 12.5)" fill="url(#d)" d="M1 7h13v11H1z"/></mask></defs><g data-name="Layer 2"><g data-name="Light theme icons"><g mask="url(#e)"><path fill="url(#f)" d="M0 0h32v32H0z"/></g><path d="M17 6h-2V2h2zm0 20h-2v4h2zm13-9v-2h-4v2zM6 17v-2H2v2zm10 1a2 2 0 002-2 2 2 0 00-2-2 2 2 0 00-2 2 2 2 0 002 2z" fill="#001d6c"/></g></g></svg>

<svg xmlns="http://www.w3.org/2000/svg" xmlns:xlink="http://www.w3.org/1999/xlink" viewBox="0 0 32 32"><defs><style>.cls-1{fill:#fff;}.cls-2{fill:url(#linear-gradient);}.cls-3{fill:url(#linear-gradient-2);}.cls-4{fill:url(#linear-gradient-3);}.cls-5{fill:url(#linear-gradient-4);}.cls-6{mask:url(#mask);}.cls-7{fill:url(#linear-gradient-5);}.cls-8{fill:#001d6c;}</style><linearGradient id="linear-gradient" x1="13" y1="7.5" x2="26" y2="7.5" gradientUnits="userSpaceOnUse"><stop offset="0.4"/><stop offset="1" stop-opacity="0"/></linearGradient><linearGradient id="linear-gradient-2" x1="-3754.5" y1="3561" x2="-3741.5" y2="3561" gradientTransform="translate(3772.5 -3541.5)" xlink:href="#linear-gradient"/><linearGradient id="linear-gradient-3" x1="-201" y1="7339.5" x2="-188" y2="7339.5" gradientTransform="translate(207 -7315)" xlink:href="#linear-gradient"/><linearGradient id="linear-gradient-4" x1="3577.5" y1="3795" x2="3590.5" y2="3795" gradientTransform="translate(-3576.5 -3782.5)" xlink:href="#linear-gradient"/><mask id="mask" x="0" y="0" width="32" height="32" maskUnits="userSpaceOnUse"><rect width="32" height="32"/><path class="cls-1" d="M16,3A13,13,0,1,0,29,16,13.015,13.015,0,0,0,16,3Zm0,24A11,11,0,1,1,27,16,11.013,11.013,0,0,1,16,27Z"/><rect class="cls-2" x="13" y="2" width="13" height="11"/><rect class="cls-3" x="18" y="14" width="13" height="11" transform="translate(44 -5) rotate(90)"/><rect class="cls-4" x="6" y="19" width="13" height="11" transform="translate(25 49) rotate(180)"/><rect class="cls-5" x="1" y="7" width="13" height="11" transform="translate(-5 20) rotate(-90)"/></mask><linearGradient id="linear-gradient-5" y1="32" x2="32" gradientUnits="userSpaceOnUse"><stop offset="0.1" stop-color="#ee5396"/><stop offset="0.9" stop-color="#8a3ffc"/></linearGradient></defs><g id="Layer_2" data-name="Layer 2"><g id="Light_theme_icons" data-name="Light theme icons"><g class="cls-6"><rect class="cls-7" width="32" height="32"/></g><path class="cls-8" d="M17,6H15V2h2Zm0,20H15v4h2Zm13-9V15H26v2ZM6,17V15H2v2Zm10,1h0a2,2,0,0,0,2-2h0a2,2,0,0,0-2-2h0a2,2,0,0,0-2,2h0A2,2,0,0,0,16,18Z"/></g></g></svg>
